images/office.svg

<?xml version="1.0" encoding="UTF-8" standalone="no"?>
<svg xmlns:dc="http://purl.org/dc/elements/1.1/" xmlns:cc="http://creativecommons.org/ns#" xmlns:rdf="http://www.w3.org/1999/02/22-rdf-syntax-ns#" xmlns:svg="http://www.w3.org/2000/svg" xmlns="http://www.w3.org/2000/svg" xmlns:sodipodi="http://sodipodi.sourceforge.net/DTD/sodipodi-0.dtd" xmlns:inkscape="http://www.inkscape.org/namespaces/inkscape" viewBox="0 0 14 14" height="14" width="14" id="svg109" version="1.1" sodipodi:docname="office.svg" inkscape:version="0.92.3 (2405546, 2018-03-11)">
  <sodipodi:namedview pagecolor="#ffffff" bordercolor="#666666" borderopacity="1" objecttolerance="10" gridtolerance="10" guidetolerance="10" inkscape:pageopacity="0" inkscape:pageshadow="2" inkscape:window-width="1881" inkscape:window-height="1051" id="namedview20062" showgrid="false" inkscape:zoom="16.857143" inkscape:cx="-13.940678" inkscape:cy="7.0000002" inkscape:window-x="0" inkscape:window-y="0" inkscape:window-maximized="1" inkscape:current-layer="svg109" inkscape:pagecheckerboard="true" />
  <metadata id="metadata115">
    <rdf:RDF>
      <cc:Work rdf:about="">
        <dc:format>image/svg+xml</dc:format>
        <dc:type rdf:resource="http://purl.org/dc/dcmitype/StillImage" />
        <dc:title />
      </cc:Work>
    </rdf:RDF>
  </metadata>
  <defs id="defs113" />
  <path style="opacity:1;fill:#000000;fill-opacity:1;fill-rule:evenodd;stroke:#ffffff;stroke-width:3;stroke-linecap:round;stroke-linejoin:round;stroke-miterlimit:4;stroke-dasharray:none;stroke-opacity:0.50196078;paint-order:markers stroke fill" d="M 7,0 A 7,7 0 0 0 0,7 A 7,7 0 0 0 7,14 A 7,7 0 0 0 14,7 A 7,7 0 0 0 7,0 Z M 7,1.5 A 5.5,5.5 0 0 1 12.5,7 A 5.5,5.5 0 0 1 7,12.5 A 5.5,5.5 0 0 1 1.5,7 A 5.5,5.5 0 0 1 7,1.5 Z M 7,2.8691406 A 1.0399773,1.0399773 0 0 0 5.9609375,3.9101562 A 1.0399773,1.0399773 0 0 0 7,4.9492188 A 1.0399773,1.0399773 0 0 0 8.0390625,3.9101562 A 1.0399773,1.0399773 0 0 0 7,2.8691406 Z M 7.6875,5.6347656 L 5.6269531,6.3222656 V 7.0078125 H 6.2597656 L 6.3125,10.443359 H 5.6269531 V 11.130859 H 8.3730469 V 10.443359 H 7.6875 Z" id="outline" inkscape:connector-curvature="0" />
  <path id="path41" d="M 7 0 A 7 7 0 0 0 0 7 A 7 7 0 0 0 7 14 A 7 7 0 0 0 14 7 A 7 7 0 0 0 7 0 z M 7 1.5 A 5.5 5.5 0 0 1 12.5 7 A 5.5 5.5 0 0 1 7 12.5 A 5.5 5.5 0 0 1 1.5 7 A 5.5 5.5 0 0 1 7 1.5 z M 7 2.8691406 A 1.0399773 1.0399773 0 0 0 5.9609375 3.9101562 A 1.0399773 1.0399773 0 0 0 7 4.9492188 A 1.0399773 1.0399773 0 0 0 8.0390625 3.9101562 A 1.0399773 1.0399773 0 0 0 7 2.8691406 z M 7.6875 5.6347656 L 5.6269531 6.3222656 L 5.6269531 7.0078125 L 6.2597656 7.0078125 L 6.3125 10.443359 L 5.6269531 10.443359 L 5.6269531 11.130859 L 8.3730469 11.130859 L 8.3730469 10.443359 L 7.6875 10.443359 L 7.6875 5.6347656 z " style="opacity:1;fill:#000000;fill-opacity:1;fill-rule:evenodd;stroke:none;stroke-width:1.60396886;stroke-linecap:square;stroke-linejoin:round;stroke-miterlimit:4;stroke-dasharray:none;stroke-opacity:1;paint-order:markers stroke fill" />
</svg>

<svg xmlns="http://www.w3.org/2000/svg" height="14" width="14">
    <path d="M7 0a7 7 0 00-7 7 7 7 0 007 7 7 7 0 007-7 7 7 0 00-7-7zm0 1.5A5.5 5.5 0 0112.5 7 5.5 5.5 0 017 12.5 5.5 5.5 0 011.5 7 5.5 5.5 0 017 1.5zm0 1.37a1.04 1.04 0 00-1.04 1.04A1.04 1.04 0 007 4.95a1.04 1.04 0 001.04-1.04A1.04 1.04 0 007 2.87zm.688 2.765l-2.061.687v.686h.633l.053 3.435h-.686v.688h2.746v-.688h-.685z" fill-rule="evenodd" stroke="#fff" stroke-width="3" stroke-linecap="round" stroke-linejoin="round" stroke-opacity=".5" paint-order="markers stroke fill"/>
    <path d="M7 0a7 7 0 00-7 7 7 7 0 007 7 7 7 0 007-7 7 7 0 00-7-7zm0 1.5A5.5 5.5 0 0112.5 7 5.5 5.5 0 017 12.5 5.5 5.5 0 011.5 7 5.5 5.5 0 017 1.5zm0 1.37a1.04 1.04 0 00-1.04 1.04A1.04 1.04 0 007 4.95a1.04 1.04 0 001.04-1.04A1.04 1.04 0 007 2.87zm.688 2.765l-2.061.687v.686h.633l.053 3.435h-.686v.688h2.746v-.688h-.685V5.635z" fill-rule="evenodd" paint-order="markers stroke fill"/>
</svg>
